Obsidian-SemiLight/actions/22s/labplot-xy-fourier-filter-curve.svg

<svg viewBox="0 0 22 22" xmlns="http://www.w3.org/2000/svg"><path d="m3 3v1 3h1v-3h3v-1h-3zm7 0v3h-3-1v7h-3v1h7v5h1v-5h8v-1h-3v-7h-1-4v-3zm5 0v1h3v3h1v-3-1h-1zm-8 4h3v6h-3zm4 0h4v6h-4zm-8 8v3 1h4v-1h-3v-3zm15 0v3h-3v1h4v-1-3z" fill="#4d4d4d"/><path d="m11 5c-.90442 0-1.6369417.6034836-2.2304688 1.3652344-.5935269.761752-1.0839052 1.7305246-1.4882812 2.6914066-.808752 1.921762-1.2675781 3.826172-1.2675781 3.826171l.9726562.234376s.4474039-1.845591 1.2167969-3.673829c.384697-.914118.8513466-1.8203454 1.3535156-2.4648434.5001404-.641897.9994884-.9719173 1.4375004-.9746094.4208.01378.782978.1849888 1.15625.5429688.375823.360428.739876.9081416 1.076171 1.587891.643616 1.300928 1.184369 3.072232 1.722657 4.865234h1.046875c-.0052-.0174-.01041-.03338-.01563-.05078-.562144-1.874727-1.123177-3.773706-1.857417-5.2578138-.36712-.742054-.777465-1.3840402-1.28125-1.8671874-.503785-.4831469-1.126428-.8049361-1.828125-.8242188h-.0059z" fill="#3daee9"/></svg>

<svg xmlns="http://www.w3.org/2000/svg" viewBox="0 0 22 22">
  <defs id="defs3051">
    <style type="text/css" id="current-color-scheme">
      .ColorScheme-Text {
        color:#4d4d4d;
      }
      .ColorScheme-Highlight {
        color:#3daee9;
      }
      </style>
  </defs>
 <path 
     style="fill:currentColor;fill-opacity:1;stroke:none" 
     d="M 3 3 L 3 4 L 3 7 L 4 7 L 4 4 L 7 4 L 7 3 L 4 3 L 3 3 z M 10 3 L 10 6 L 7 6 L 6 6 L 6 13 L 3 13 L 3 14 L 10 14 L 10 19 L 11 19 L 11 14 L 19 14 L 19 13 L 16 13 L 16 6 L 15 6 L 11 6 L 11 3 L 10 3 z M 15 3 L 15 4 L 18 4 L 18 7 L 19 7 L 19 4 L 19 3 L 18 3 L 15 3 z M 7 7 L 10 7 L 10 13 L 7 13 L 7 7 z M 11 7 L 15 7 L 15 13 L 11 13 L 11 7 z M 3 15 L 3 18 L 3 19 L 7 19 L 7 18 L 4 18 L 4 15 L 3 15 z M 18 15 L 18 18 L 15 18 L 15 19 L 19 19 L 19 18 L 19 15 L 18 15 z "
     class="ColorScheme-Text"
     />
 <path 
     style="fill:currentColor;fill-opacity:1;stroke:none" 
     d="M 11,5 C 10.09558,5 9.3630583,5.6034836 8.7695312,6.3652344 8.1760043,7.1269864 7.685626,8.095759 7.28125,9.056641 6.472498,10.978403 6.0136719,12.882813 6.0136719,12.882812 l 0.9726562,0.234376 c 0,0 0.4474039,-1.845591 1.2167969,-3.673829 C 8.587822,8.529241 9.0544716,7.6230136 9.5566406,6.9785156 10.056781,6.3366186 10.556129,6.0065983 10.994141,6.0039062 c 0.4208,0.01378 0.782978,0.1849888 1.15625,0.5429688 0.375823,0.360428 0.739876,0.9081416 1.076171,1.587891 0.643616,1.300928 1.184369,3.072232 1.722657,4.865234 l 1.046875,0 c -0.0052,-0.0174 -0.01041,-0.03338 -0.01563,-0.05078 C 15.41832,11.074493 14.857287,9.175514 14.123047,7.6914062 13.755927,6.9493522 13.345582,6.307366 12.841797,5.8242188 12.338012,5.3410719 11.715369,5.0192827 11.013672,5 l -0.0059,0 z"
     class="ColorScheme-Highlight"
     />
</svg>
